lib/svgs/unassigned.svg

<?xml version="1.0" encoding="UTF-8"?>
<svg width="16px" height="16px" viewBox="0 0 16 16" version="1.1" xmlns="http://www.w3.org/2000/svg" xmlns:xlink="http://www.w3.org/1999/xlink">
    <!-- Generator: sketchtool 51.3 (57544) - http://www.bohemiancoding.com/sketch -->
    <title>user/unassigned</title>
    <desc>Created with sketchtool.</desc>
    <defs></defs>
    <g id="Icons" stroke="none" stroke-width="1" fill="none" fill-rule="evenodd">
        <g id="Web" transform="translate(-195.000000, -2248.000000)" fill="#000000">
            <g id="user/unassigned" transform="translate(195.000000, 2248.000000)">
                <path d="M0.600500733,16.001 C0.560500733,16.001 0.519500733,15.996 0.479500733,15.988 C0.154500733,15.922 -0.0544992674,15.605 0.0125007326,15.279 L0.617500733,12.333 C0.628500733,12.282 0.645500733,12.233 0.668500733,12.187 C0.922500733,11.677 1.35850073,11.29 1.89550073,11.098 L5.51650073,9.807 C5.62050073,9.77 5.69050073,9.67 5.69050073,9.56 L5.69050073,9.032 C5.69050073,8.714 5.54950073,8.415 5.30350073,8.212 C4.42550073,7.489 3.92150073,6.43 3.92150073,5.307 L3.92150073,3.789 C3.92150073,1.7 5.62150073,0 7.71150073,0 C9.80050073,0 11.5005007,1.7 11.5005007,3.789 L11.5005007,5.307 C11.5005007,6.425 10.9995007,7.481 10.1275007,8.206 C9.87750073,8.413 9.73350073,8.718 9.73350073,9.043 L9.73350073,9.561 C9.73350073,9.671 9.80350073,9.771 9.90750073,9.808 C10.2195007,9.919 10.3825007,10.262 10.2705007,10.574 C10.1595007,10.886 9.81450073,11.051 9.50450073,10.938 C8.92350073,10.73 8.53350073,10.177 8.53350073,9.561 L8.53350073,9.043 C8.53350073,8.36 8.83550073,7.718 9.36150073,7.282 C9.95750073,6.787 10.3005007,6.067 10.3005007,5.307 L10.3005007,3.789 C10.3005007,2.361 9.13950073,1.2 7.71150073,1.2 C6.28350073,1.2 5.12150073,2.361 5.12150073,3.789 L5.12150073,5.307 C5.12150073,6.07 5.46650073,6.792 6.06650073,7.287 C6.59050073,7.718 6.89050073,8.354 6.89050073,9.032 L6.89050073,9.56 C6.89050073,10.176 6.50050073,10.73 5.91950073,10.937 L2.29850073,12.229 C2.07750073,12.308 1.89350073,12.46 1.77550073,12.661 L1.18750073,15.522 C1.12950073,15.805 0.879500733,16.001 0.600500733,16.001 L0.600500733,16.001 M14.3839007,15.3 C14.3839007,15.687 14.0709007,16 13.6839007,16 C13.2969007,16 12.9839007,15.687 12.9839007,15.3 C12.9839007,14.913 13.2969007,14.6 13.6839007,14.6 C14.0709007,14.6 14.3839007,14.913 14.3839007,15.3 L14.3839007,15.3 M13.0839007,13.4536 L13.0839007,13.2046 C13.0839007,12.5656 13.4629007,11.9876 14.0489007,11.7316 C14.3809007,11.5856 14.5959007,11.2576 14.5959007,10.8946 C14.5959007,10.3916 14.1869007,9.9836 13.6839007,9.9836 C13.3439007,9.9836 13.0339007,10.1706 12.8759007,10.4716 C12.7219007,10.7656 12.3579007,10.8776 12.0659007,10.7236 C11.7719007,10.5696 11.6599007,10.2066 11.8129007,9.9136 C12.1799007,9.2166 12.8959007,8.7826 13.6839007,8.7826 C14.8489007,8.7826 15.7959007,9.7306 15.7959007,10.8946 C15.7959007,11.7346 15.2989007,12.4936 14.5289007,12.8306 C14.3799007,12.8966 14.2839007,13.0426 14.2839007,13.2046 L14.2839007,13.4536 C14.2839007,13.7846 14.0124488,14.0536001 13.6839007,14.0536 C13.1856079,14.0535999 13.0839007,13.4536 13.0839007,13.4536 Z" id="Shape"></path>
            </g>
        </g>
    </g>
</svg>

<svg xmlns="http://www.w3.org/2000/svg" viewBox="0 0 16 16">
    <path d="M.6 16.001a.599.599 0 0 1-.588-.722l.606-2.946a.617.617 0 0 1 .05-.146c.255-.51.69-.897 1.228-1.089l3.62-1.291a.263.263 0 0 0 .175-.247v-.528a1.06 1.06 0 0 0-.387-.82 3.757 3.757 0 0 1-1.382-2.905V3.789a3.794 3.794 0 0 1 7.579 0v1.518a3.766 3.766 0 0 1-1.373 2.899c-.25.207-.394.512-.394.837v.518c0 .11.07.21.174.247a.599.599 0 1 1-.403 1.13 1.466 1.466 0 0 1-.971-1.377v-.518c0-.683.302-1.325.828-1.761a2.567 2.567 0 0 0 .939-1.975V3.789a2.591 2.591 0 0 0-5.18 0v1.518c0 .763.346 1.485.946 1.98.524.431.824 1.067.824 1.745v.528c0 .616-.39 1.17-.971 1.377l-3.621 1.292a.99.99 0 0 0-.523.432l-.588 2.861a.6.6 0 0 1-.587.479m13.783-.701a.7.7 0 1 1-1.4.001.7.7 0 0 1 1.4-.001m-1.3-1.846v-.25c0-.638.379-1.216.965-1.472a.915.915 0 0 0-.365-1.748.91.91 0 0 0-.808.488.6.6 0 1 1-1.063-.558 2.11 2.11 0 1 1 2.716 2.917.41.41 0 0 0-.245.374v.249c0 .33-.272.6-.6.6-.498 0-.6-.6-.6-.6z"/>
</svg>
